dist/svgs/devui-icons/op/add-label.svg

<?xml version="1.0" encoding="UTF-8"?>
<svg width="16px" height="16px" viewBox="0 0 16 16" version="1.1" xmlns="http://www.w3.org/2000/svg" xmlns:xlink="http://www.w3.org/1999/xlink">
    <title>操作/新建标签</title>
    <desc>Created with Sketch.</desc>
    <g id="操作/新建标签" stroke="none" stroke-width="1" fill="none" fill-rule="evenodd">
        <path d="M13.4832522,8.99060357 L10.9281369,8.99060357 L12.6366581,6.03135806 L11.3845951,2.81118749 C11.2146612,2.37413599 10.7638582,2.11386473 10.3003936,2.18522344 L6.88561253,2.71099038 L2.62339135,10.0980763 L8.37240074,13.4172684 L8.97305978,12.3768964 L8.96461997,14.9798918 L10.025335,14.9798918 L9.72267287,15.504118 C9.44653049,15.9824106 8.83494008,16.1462858 8.35664746,15.8701434 L0.507015958,11.3381565 C0.0287233344,11.0620141 -0.135151821,10.4504237 0.140990554,9.97213112 L5.12865555,1.33324193 C5.27746141,1.07550262 5.53333521,0.897435941 5.8267189,0.847448465 L10.6404633,0.0272701731 C11.5658747,-0.130403835 12.4764102,0.37676611 12.829512,1.24657443 L14.7614085,6.00548354 C14.8774126,6.29124061 14.8550744,6.61453773 14.7008716,6.88162487 L13.4832522,8.99060357 Z M12,12 L12,10 L14,10 L14,12 L16,12 L16,14 L14,14 L14,16 L12,16 L12,14 L10,14 L10,12 L12,12 Z M9.5,7 C8.67157288,7 8,6.32842712 8,5.5 C8,4.67157288 8.67157288,4 9.5,4 C10.3284271,4 11,4.67157288 11,5.5 C11,6.32842712 10.3284271,7 9.5,7 Z" id="形状" fill="#293040"></path>
    </g>
</svg>

<svg xmlns="http://www.w3.org/2000/svg" viewBox="0 0 16 16"><path fill-rule="evenodd" d="M13.483 8.99h-2.555l1.709-2.959-1.252-3.22a1 1 0 00-1.085-.626l-3.414.526-4.263 7.387 5.75 3.32.6-1.041-.008 2.603h1.06l-.302.524a1 1 0 01-1.366.366l-7.85-4.532a1 1 0 01-.366-1.366l4.988-8.639a1 1 0 01.698-.486l4.813-.82a2 2 0 012.19 1.22l1.931 4.758a1 1 0 01-.06.877L13.483 8.99zM12 12v-2h2v2h2v2h-2v2h-2v-2h-2v-2h2zM9.5 7a1.5 1.5 0 110-3 1.5 1.5 0 010 3z"/></svg>
